resources/icons/20px/soccer-ball.svg

<svg xmlns="http://www.w3.org/2000/svg" viewBox="0 0 20 20">
  <path d="M9.5 19C14.7467 19 19 14.7467 19 9.5C19 4.25329 14.7467 0 9.5 0C4.25329 0 0 4.25329 0 9.5C0 14.7467 4.25329 19 9.5 19ZM9.5 17C8.69299 17 7.91576 16.8725 7.18732 16.6367L6.52194 14.5888L7.67371 13.0036H11.4983L12.6501 14.5888L12.006 16.5711C11.2223 16.8488 10.3788 17 9.5 17ZM3.50023 14.001C2.55823 12.7474 2 11.1889 2 9.5L2.00017 9.44965L3.55749 8.31819L5.89351 9.0772L6.93152 12.3238L5.71292 14.001H3.50023ZM17 9.5C17 11.1889 16.4418 12.7474 15.4998 14.001H13.4591L12.121 12.1594L13.0965 9.10847L15.5287 8.31819L16.9992 9.38651C16.9997 9.42427 17 9.4621 17 9.5ZM3.22453 5.39132C4.07161 4.10013 5.30645 3.08615 6.76351 2.51489L8.99578 4.13673V6.02219L6.16344 8.11345L3.86651 7.36713L3.22453 5.39132ZM15.2197 7.36713L12.8629 8.1329L9.99578 6.01596V4.13673L12.231 2.51274C13.7237 3.09661 14.9836 4.145 15.8328 5.48013L15.2197 7.36713Z" />
</svg>

<svg xmlns="http://www.w3.org/2000/svg" viewBox="0 0 20 20">
  <path d="M9.5 19a9.5 9.5 0 1 0 0-19 9.5 9.5 0 0 0 0 19m0-2a7.5 7.5 0 0 1-2.313-.363l-.665-2.048 1.152-1.585h3.824l1.152 1.585-.644 1.982A7.5 7.5 0 0 1 9.5 17m-6-2.999A7.47 7.47 0 0 1 2 9.5v-.05l1.557-1.132 2.337.76 1.038 3.246L5.712 14zM17 9.5a7.47 7.47 0 0 1-1.5 4.501h-2.04l-1.339-1.842.976-3.05 2.432-.79 1.47 1.068zM3.225 5.391a7.53 7.53 0 0 1 3.539-2.876l2.232 1.622v1.885L6.163 8.113l-2.296-.746zM15.22 7.367l-2.357.766-2.867-2.117v-1.88l2.235-1.623a7.53 7.53 0 0 1 3.602 2.967z"/>
</svg>
